resources/svg/plant.svg

<svg xmlns="http://www.w3.org/2000/svg" viewBox="0 0 15 15" fill="currentColor"><path fill-rule="evenodd" clip-rule="evenodd" d="M7 4.5C7 2.01472 9.01472 0 11.5 0H15V3.5C15 5.98528 12.9853 8 10.5 8H8V15H7V11H4.5C2.01472 11 0 8.98528 0 6.5V3H3.5C4.91363 3 6.17502 3.65183 7 4.67133V4.5ZM8.14648 6.14642L11.1465 3.14642L11.8536 3.85353L8.85359 6.85353L8.14648 6.14642ZM6.14648 9.85353L3.14648 6.85353L3.85359 6.14642L6.85359 9.14642L6.14648 9.85353Z" fill="black"/></svg>

<svg xmlns="http://www.w3.org/2000/svg" viewBox="0 0 15 15" fill="currentColor"><path fill-rule="evenodd" clip-rule="evenodd" d="M7 4.5A4.5 4.5 0 0111.5 0H15v3.5A4.5 4.5 0 0110.5 8H8v7H7v-4H4.5A4.5 4.5 0 010 6.5V3h3.5c1.414 0 2.675.652 3.5 1.671V4.5zm1.146 1.646l3-3 .708.708-3 3-.708-.708zm-2 3.708l-3-3 .708-.708 3 3-.708.708z" fill="currentColor"/></svg>
